X: 305659
M: 2/4
L: 1/16
K: D
fg |\
a4 a2b2 | b2a2f2a2 | b2a2f2d2 | edef efge |\
a4 a2b2 | b2a2 f4 | a2f2 edef | d4 "^D.C."z2 :|


